X: 18517
T: I Ha'e A Wife O' Ma Ain
R: slip jig
M: 9/8
K: Eminor
EFE G2A B3|EFE c2A BGE|EFE G2A B3|ABA d2B AFD:|
gfg fef e3|EFE G2A BGE|gfg afd d3|DFA dcB AFD:|

